!!!!SEGMENT: pl-kk--kk-i-2--027-003_anonim--verbum-caro-factum-est-tertia-pars-in-principio-erat-verbum.krn
!!!cenid: 16xx:1647
!!!COM: Anonim
!!!COM-rismID: pe30004985
!!!CDT:
!!!CNT:
!!!OPR: Verbum caro factum est
!!!OTL: Tertia pars - In principio erat verbum
!!!OMV: 003
!!!PDT:
!!!AGN: Sacred
!!!SMS-siglum: PL-Kk
!!!SMS-shelfmark: Kk.I.2
!!!SMS-shelfwork: 027-003 M
!!!NIFC-rismSourceID: 300258045
!!!NIFC-islandoraID: pl-kk:750
!!!URL-pdf-islandora: https://repozytorium.nifc.pl/islandora/object/pl-kk%3A750/datastream/PDF/view
!!!URL-scan: https://polish.musicsources.pl/pl/lokalizacje/galeria/rekopisy/5828 @EN{Scan on Polish Music Herritage in Open Access Website} @PL{Skany w portalu Dziedzictwo Muzyki Polskiej w otwartym dostępie}
!!!ONB-nifc: Części motetu: 1. Verbum caro factum est, 2. Plenum gratiae, 3. In principio erat verbum; skany: C: 0054; A: 0156; T: 0258; B: 0356;
!!!AIN: 1 alto 1 bass 1 soprn 1 tenor
!!!key: G:mix
**kern	**text	**kern	**text	**kern	**text	**kern	**text
*part4	*part4	*part3	*part3	*part2	*part2	*part1	*part1
*staff4	*staff4	*staff3	*staff3	*staff2	*staff2	*staff1	*staff1
*I"BASVS	*	*I"TENOR	*	*I"ALTVS	*	*I"DISCANTVS	*
*I'B	*	*I'T	*	*I'A	*	*I'S	*
*ICvox	*	*ICvox	*	*ICvox	*	*ICvox	*
*Ibass	*	*Itenor	*	*Ialto	*	*Isoprn	*
*clefF4	*	*clefC4	*	*clefC3	*	*clefC1	*
*G:mix	*	*G:mix	*	*G:mix	*	*G:mix	*
*k[]	*	*k[]	*	*k[]	*	*k[]	*
*M2/1	*	*M2/1	*	*M2/1	*	*M2/1	*
*met(c|)	*	*met(c|)	*	*met(c|)	*	*met(c|)	*
=1	=1	=1	=1	=1	=1	=1	=1
*	*	*	*	*lig	*	*	*
!	!	!	!	!LO:N:vis=0	!	!	!
0r	.	0r	.	1d	In	1r	.
*	*	*	*	*	*	*lig	*
!	!	!	!	!LO:N:vis=0	!	!LO:N:vis=0	!
.	.	.	.	1f	.	1a	In
*	*	*	*	*Xlig	*	*	*
=2	=2	=2	=2	=2	=2	=2	=2
*	*	*	*	*lig	*	*	*
!	!	!	!	!LO:N:vis=0	!	!LO:N:vis=0	!
0r	.	0r	.	1f	prin-	1cc	.
*	*	*	*	*	*	*Xlig	*
!	!	!	!	!LO:N:vis=0	!	!	!
.	.	.	.	1c	.	2cc\	prin-
.	.	.	.	.	.	2g/	-ci-
*	*	*	*	*Xlig	*	*	*
=3	=3	=3	=3	=3	=3	=3	=3
*lig	*	*	*	*	*	*	*
!LO:N:vis=0	!	!	!	!	!	!	!
1D	In	1r	.	2r	.	1.a	-pi-
.	.	.	.	2.f\	-ci-	.	.
*	*	*lig	*	*	*	*	*
!LO:N:vis=0	!	!LO:N:vis=0	!	!	!	!	!
1F	.	1A	In	.	.	.	.
.	.	.	.	4e\	-pi-	.	.
.	.	.	.	2c/	-o	2.cc\	-o
*Xlig	*	*	*	*	*	*	*
=4	=4	=4	=4	=4	=4	=4	=4
*lig	*	*	*	*	*	*	*
!LO:N:vis=0	!	!LO:N:vis=0	!	!	!	!	!
1F	prin-	1c	.	1f	e-	.	.
.	.	.	.	.	.	4b\	.
.	.	.	.	.	.	2a\	.
*	*	*Xlig	*	*	*	*	*
*	*	*lig	*	*	*	*	*
!LO:N:vis=0	!	!LO:N:vis=0	!	!	!	!	!
1C	.	1c	prin-	0e	-rat	0g	.
*Xlig	*	*	*	*	*	*	*
=5	=5	=5	=5	=5	=5	=5	=5
!	!	!LO:N:vis=0	!	!	!	!	!
1C	-ci-	1G	.	.	.	.	.
*	*	*Xlig	*	*	*	*	*
*	*	*lig	*	*	*	*	*
!	!	!LO:N:vis=0	!	!	!	!	!
2.F\	-pi-	1A	-ci-	2.c/	ver-	1f	.
4E\	-o	.	.	4d\	-bu(m)	.	.
=6	=6	=6	=6	=6	=6	=6	=6
!	!	!LO:N:vis=0	!	!	!	!	!
2.C/	e-	1c	.	0e	.	2e/	.
.	.	.	.	.	.	1a	e-
4D/	-rat	.	.	.	.	.	.
*	*	*Xlig	*	*	*	*	*
*	*	*lig	*	*	*	*	*
!	!	!LO:N:vis=0	!	!	!	!	!
1E	ver-	1B	-pi-	.	.	.	.
.	.	.	.	.	.	2g/	-rat
=7	=7	=7	=7	=7	=7	=7	=7
*lig	*	*	*	*	*	*	*
!LO:N:vis=0	!	!LO:N:vis=0	!	!	!	!	!
1F	-bum	1A	.	2c/	.	1cc	ver-
.	.	.	.	1f	.	.	.
*	*	*Xlig	*	*	*	*	*
*	*	*lig	*	*	*	*	*
!LO:N:vis=0	!	!LO:N:vis=0	!	!	!	!	!
1G	.	1B	-o	.	.	1b	.
.	.	.	.	2e\	.	.	.
*Xlig	*	*	*	*	*	*	*
=8	=8	=8	=8	=8	=8	=8	=8
!	!	!LO:N:vis=0	!	!	!	!	!
2.F\	.	1c	.	0.f	.	1a	-bu(m)
4E\	.	.	.	.	.	.	.
*	*	*Xlig	*	*	*	*	*
*	*	*	*	*	*	*	*ij
1D	.	1d	e-	.	.	2r	.
.	.	.	.	.	.	1a	In
=9	=9	=9	=9	=9	=9	=9	=9
*	*	*lig	*	*	*	*	*
!	!	!LO:N:vis=0	!	!	!	!	!
0r	.	1d	-rat	.	.	.	.
.	.	.	.	.	.	2.b\	prin-
!	!	!LO:N:vis=0	!	!	!	!	!
.	.	1c	.	1e	.	.	.
.	.	.	.	.	.	4a\	-ci-
.	.	.	.	.	.	1a	-pi-
*	*	*Xlig	*	*	*	*	*
=10	=10	=10	=10	=10	=10	=10	=10
1r	.	1B	ver-	1d	.	.	.
.	.	.	.	.	.	2g/	-o
2.AA/	.	2.c\	-bum	2.A/	.	1.a	e-
4BB/	.	4B/	.	8G/L	.	.	.
.	.	.	.	8F/J	.	.	.
=11	=11	=11	=11	=11	=11	=11	=11
2C/	.	2A/	.	2E/	.	.	.
2BB/	.	1G	.	2D/	.	2b/	-rat
1AA	.	.	.	1C	.	1cc	ver-
.	.	2F/	.	.	.	.	.
=12	=12	=12	=12	=12	=12	=12	=12
*lig	*	*lig	*	*lig	*	*	*
!v	!	!LO:N:vis=0	!	!LO:N:vis=0	!	!	!
1GG	.	1G	.	1D	.	2b/	.
.	.	.	.	.	.	1g	.
*	*	*custos:G	*	*	*	*	*
!	!	!	!	!LO:N:vis=0	!	!	!
!LO:N:vis=0	!	!LO:N:vis=0	!	!	!	!	!
1D	.	1A	.	1d	.	.	.
.	.	.	.	.	.	2f/	.
*	*	*	*	*	*	*custos:g	*
*Xlig	*	*Xlig	*	*Xlig	*	*	*
!	!	!LO:LB:g=original	!	!	!	!	!
!	!	!	!	!	!	!LO:LB:g=original	!
=13	=13	=13	=13	=13	=13	=13	=13
2.GG/	.	1G	.	1B	.	0g	-bu(m)
*custos:BB	*	*	*	*	*	*	*
4AA/	.	.	.	.	.	.	.
2BB/	.	2r	.	1r	.	.	.
2.C/	.	1c	.	.	.	.	.
=14	=14	=14	=14	=14	=14	=14	=14
.	.	.	.	0G	Et	2r	.
4D/	.	.	.	.	.	.	.
2.E\	.	2B\	.	.	.	2.g/	In
.	.	1B	.	.	.	.	.
4D/	.	.	.	.	.	4f/	prin-
1BB	.	.	.	.	.	1d	-ci-
=15	=15	=15	=15	=15	=15	=15	=15
.	.	2G/	.	0G	ver-	.	.
2GG/	.	2.B/	.	.	.	2.g/	-pi-
1GG	.	.	.	.	.	.	.
.	.	4c/	.	.	.	4a/	-o
.	.	2d\	.	.	.	2b/	e-
=16	=16	=16	=16	=16	=16	=16	=16
*lig	*	*	*	*	*	*	*
0G	.	0B	.	0d	-bum	2.g/	-rat
.	.	.	.	.	.	4f/	ver-
.	.	.	.	.	.	2d/	.
.	.	.	.	.	.	1g	.
=17	=17	=17	=17	=17	=17	=17	=17
*	*	*	*	*lig	*	*	*
0A	.	2.A/	.	0c	.	.	.
.	.	.	.	.	.	4f/	.
.	.	4B/	.	.	.	4e/	.
.	.	1c	.	.	.	1f	.
*Xlig	*	*	*	*	*	*	*
=18	=18	=18	=18	=18	=18	=18	=18
1.G	.	1B	.	0d	.	0g	-bu(m)
.	.	2r	.	.	.	.	.
2F\	.	2B/	.	.	.	.	.
*	*	*	*	*	*	*	*Xij
*	*	*	*	*Xlig	*	*	*
=19	=19	=19	=19	=19	=19	=19	=19
*	*	*	*	*custos:d	*	*	*
2D/	.	2A/	.	0d	.	0r	.
1G	.	1B	.	.	.	.	.
4F\	.	4A/	.	.	.	.	.
4E\	.	4G/	.	.	.	.	.
!	!	!	!	!LO:LB:g=original	!	!	!
=20	=20	=20	=20	=20	=20	=20	=20
*	*	*	*	*lig	*	*	*
1F	.	1A	et	0d	.	1r	.
1G	.	2.B/	ver-	.	.	1dd	et
.	.	4c\	-bu(m)	.	.	.	.
=21	=21	=21	=21	=21	=21	=21	=21
2F\	.	1d	e-	0f	.	1a	ver-
2D/	.	.	.	.	.	.	.
1.A	.	1c	-rat	.	.	1.cc	-bu(m)
*	*	*	*	*Xlig	*	*	*
=22	=22	=22	=22	=22	=22	=22	=22
*	*	*	*	*lig	*	*	*
.	.	0r	.	0c	.	.	.
2G\	.	.	.	.	.	2b/	.
2.F\	.	.	.	.	.	2.a/	.
4E\	.	.	.	.	.	4g/	.
=23	=23	=23	=23	=23	=23	=23	=23
2.D/	.	0A	.	0d	.	2.f/	.
4E\	.	.	.	.	.	4g/	.
1.F	.	.	.	.	.	1.a	.
*	*	*	*	*Xlig	*	*	*
=24	=24	=24	=24	=24	=24	=24	=24
*	*	*	*	*lig	*	*	*
!	!	!	!	!LO:N:vis=0	!	!	!
.	.	2r	.	1d	.	.	.
4E/	.	1A	.	.	.	4g/	.
4D/	.	.	.	.	.	4f/	.
!	!	!	!	!LO:N:vis=0	!	!	!
1E	.	.	.	1c	.	1g	.
.	.	2G/	.	.	.	.	.
*	*	*	*	*Xlig	*	*	*
=25	=25	=25	=25	=25	=25	=25	=25
*lig	*	*	*	*lig	*	*	*
!LO:N:vis=0	!	!	!	!LO:N:vis=0	!	!	!
1D	.	1A	.	1d	.	1f	.
*custos:G	*	*	*	*	*	*	*
!LO:N:vis=0	!	!	!	!LO:N:vis=0	!	!	!
1A	.	1r	.	1c	.	2.e/	.
.	.	.	.	.	.	4f/	.
*	*	*	*	*	*	*custos:g	*
!LO:LB:g=original	!	!	!	!	!	!	!
*Xlig	*	*	*	*Xlig	*	*	*
!	!	!	!	!	!	!LO:LB:g=original	!
=26	=26	=26	=26	=26	=26	=26	=26
*	*	*custos:E	*	*	*	*	*
2.G\	.	2r	.	1B	.	1g	.
!	!	!LO:LB:g=original	!	!	!	!	!
.	.	2E/	.	.	.	.	.
4F\	.	.	.	.	.	.	.
*lig	*	*lig	*	*	*	*	*
!LO:N:vis=0	!	!LO:N:vis=0	!	!	!	!	!
1D	.	1F	.	2A/	.	1r	.
.	.	.	.	1B	.	.	.
=27	=27	=27	=27	=27	=27	=27	=27
!LO:N:vis=0	!	!LO:N:vis=0	!	!	!	!	!
1E	.	1G	.	.	.	0r	.
.	.	.	.	1c	.	.	.
*Xlig	*	*Xlig	*	*	*	*	*
1.F	.	2A/	.	.	.	.	.
.	.	1A	.	1d	.	.	.
=28	=28	=28	=28	=28	=28	=28	=28
.	.	.	.	.	.	1r	.
4E/	.	4G/	.	4c/	.	.	.
4D/	.	4F/	.	4B/	.	.	.
1E	.	1G	.	1c	.	1g	e-
=29	=29	=29	=29	=29	=29	=29	=29
00D	.	0A	.	00d	.	2.f/	-rat
.	.	.	.	.	.	4g/	.
.	.	.	.	.	.	1.a	.
=30	=30	=30	=30	=30	=30	=30	=30
.	.	2.F/	.	.	.	.	.
.	.	.	.	.	.	4g/	.
.	.	4G/	.	.	.	4f/	.
.	.	1A	.	.	.	1a	.
=31	=31	=31	=31	=31	=31	=31	=31
1G	.	1B	.	0r	.	2d/	.
.	.	.	.	.	.	1e	.
2A\	.	1c	.	.	.	.	.
2F\	.	.	.	.	.	2f/	.
=32	=32	=32	=32	=32	=32	=32	=32
*	*	*	*	*lig	*	*	*
2G\	.	0r	.	0d	Et	2b-X\	a-
2A\	.	.	.	.	.	1a	-pud
1B-X	.	.	.	.	.	.	.
.	.	.	.	.	.	2g/	de-
=33	=33	=33	=33	=33	=33	=33	=33
0A	.	1.c	.	0e	.	00a	-u(m)
.	.	4B/	.	.	.	.	.
.	.	4A/	.	.	.	.	.
*	*	*	*	*Xlig	*	*	*
=34	=34	=34	=34	=34	=34	=34	=34
*	*	*	*	*lig	*	*	*
0D	.	0d	.	0f	de-	.	.
=35	=35	=35	=35	=35	=35	=35	=35
0r	.	2A/	.	0e	.	2r	.
.	.	1c	.	.	.	2.g/	et
.	.	.	.	.	.	4a/	.
.	.	4B/	.	.	.	4b\	.
.	.	4A/	.	.	.	4cc\	.
*	*	*	*	*Xlig	*	*	*
=36	=36	=36	=36	=36	=36	=36	=36
0G	.	1B	.	0d	-us	4dd\	.
.	.	.	.	.	.	4cc\	.
.	.	.	.	.	.	4b\	.
.	.	.	.	.	.	4a\	.
.	.	1r	.	.	.	1b	De-
=37	=37	=37	=37	=37	=37	=37	=37
*lig	*	*lig	*	*	*	*	*
!LO:N:vis=0	!	!LO:N:vis=0	!	!	!	!	!
1C	.	1c	.	2r	.	1cc	-us
.	.	.	.	2e\	.	.	.
!LO:N:vis=0	!	!LO:N:vis=0	!	!	!	!	!
1G	.	1B	.	1d	.	2r	.
.	.	.	.	.	.	1g	e-
*Xlig	*	*Xlig	*	*	*	*	*
=38	=38	=38	=38	=38	=38	=38	=38
*	*	*	*	*	*	*custos:a	*
0r	.	1c	et	2.e\	.	.	.
.	.	.	.	.	.	2.a/	.
.	.	.	.	4d\	.	.	.
*	*	*lig	*	*	*	*	*
!	!	!LO:N:vis=0	!	!	!	!	!
.	.	1A	de-	0c	.	.	.
!	!	!	!	!	!	!LO:LB:g=original	!
.	.	.	.	.	.	4g/	.
.	.	.	.	.	.	1f	.
=39	=39	=39	=39	=39	=39	=39	=39
*lig	*	*	*	*	*	*	*
!LO:N:vis=0	!	!LO:N:vis=0	!	!	!	!	!
1C	.	1G	.	.	.	.	.
.	.	.	.	.	.	2e/	.
*	*	*Xlig	*	*lig	*	*	*
!LO:N:vis=0	!	!	!	!LO:N:vis=0	!	!	!
1D	.	1F	-us	1A	.	2.f/	-rat
.	.	.	.	.	.	4g\	.
*Xlig	*	*	*	*	*	*	*
=40	=40	=40	=40	=40	=40	=40	=40
*	*	*lig	*	*	*	*	*
!	!	!LO:N:vis=0	!	!LO:N:vis=0	!	!	!
2.D/	.	1F	e-	1d	.	1a	.
4E\	.	.	.	.	.	.	.
*	*	*	*	*Xlig	*	*	*
*	*	*custos:c	*	*	*	*	*
!	!	!LO:N:vis=0	!	!	!	!	!
2.F\	.	1A	.	2.c/	.	2r	.
*	*	*	*	*	*	*	*ij
.	.	.	.	.	.	2.a\	et
4E\	.	.	.	4d\	.	.	.
*	*	*Xlig	*	*	*	*	*
!	!	!LO:LB:g=original	!	!	!	!	!
=41	=41	=41	=41	=41	=41	=41	=41
*lig	*	*lig	*	*	*	*	*
!LO:N:vis=0	!	!LO:N:vis=0	!	!	!	!	!
1C	.	1c	-rat	2.e\	.	.	.
.	.	.	.	.	.	4b\	.
.	.	.	.	.	.	1cc	De-
.	.	.	.	4f\	.	.	.
*custos:A	*	*	*	*	*	*	*
!LO:N:vis=0	!	!LO:N:vis=0	!	!	!	!	!
1G	.	1d	.	1g	.	.	.
.	.	.	.	.	.	2b\	.
*Xlig	*	*Xlig	*	*	*	*	*
!LO:LB:g=original	!	!	!	!	!	!	!
=42	=42	=42	=42	=42	=42	=42	=42
*	*	*lig	*	*	*	*	*
2.A\	.	0c	ver-	1e	.	2.cc\	.
4G\	.	.	.	.	.	4b\	.
2F\	.	.	.	2r	.	2a/	.
*	*	*	*	*custos:d	*	*	*
2E\	.	.	.	2e/	.	2g/	.
!	!	!	!	!LO:LB:g=original	!	!	!
=43	=43	=43	=43	=43	=43	=43	=43
0G	.	0B	.	0d	.	2.dd\	-us
.	.	.	.	.	.	4cc\	.
.	.	.	.	.	.	2.b\	.
.	.	.	.	.	.	8a/L	e-
.	.	.	.	.	.	8b/J	.
*	*	*Xlig	*	*	*	*	*
=44	=44	=44	=44	=44	=44	=44	=44
2.F\	.	1c	-bum	2.A/	.	1cc	-rat
4E\	.	.	.	4G/	.	.	.
2D/	.	2B/	.	2F/	.	1r	.
1C	.	2.A/	.	2.E/	.	.	.
*	*	*	*	*	*	*	*Xij
=45	=45	=45	=45	=45	=45	=45	=45
.	.	.	.	.	.	1r	.
.	.	4G/	.	4D/	.	.	.
2BB/	.	1G	.	1D	.	.	.
1AA	.	.	.	.	.	1cc	.
.	.	2F/	.	2C/	.	.	.
=46	=46	=46	=46	=46	=46	=46	=46
2GG/	.	2G/	.	2D/	.	2b\	.
2G\	.	2d\	.	2d\	.	2.a\	.
*lig	*	*	*	*	*	*	*
!LO:N:vis=0	!	!	!	!	!	!	!
1C	.	2.c\	.	1e	.	.	.
.	.	.	.	.	.	4g/	.
.	.	.	.	.	.	1g	.
.	.	4B\	.	.	.	.	.
=47	=47	=47	=47	=47	=47	=47	=47
!LO:N:vis=0	!	!	!	!	!	!	!
1D	.	1A	.	2.d/	.	.	.
.	.	.	.	.	.	2f/	.
.	.	.	.	4c/	.	.	.
*Xlig	*	*	*	*	*	*	*
1G	.	2G/	.	1B	.	1g	Ver-
.	.	2B\	.	.	.	.	.
=48	=48	=48	=48	=48	=48	=48	=48
2.F\	.	2.A/	.	2.c/	.	1a	.
4E\	.	4B/	.	4d\	.	.	.
1C	.	1c	.	1e	.	1.g	.
=49	=49	=49	=49	=49	=49	=49	=49
0D	.	0A	.	0d	.	.	.
.	.	.	.	.	.	4f/	-bum
.	.	.	.	.	.	4e/	.
.	.	.	.	.	.	1f	.
=50	=50	=50	=50	=50	=50	=50	=50
*	*	*custos:G	*	*custos:d	*	*custos:g	*
!LO:N:vis=00	!	!LO:N:vis=00	!	!LO:N:vis=00	!	!LO:N:vis=00	!
0GG;	.	0G\	.	0d;>	.	0g;	.
==	==	==	==	==	==	==	==
*-	*-	*-	*-	*-	*-	*-	*-
!!!system-decoration: [(s1,s2,s3,s4)]
!!!RDF**kern: < = above
!!!RDF**kern: > = below
!!!ENC: Filip Voros
!!!END: 2022-01-14
!!!ENC: Jan Barakat
!!!END: 2022-01-22
